icons/icon-dashboard.svg

<svg xmlns="http://www.w3.org/2000/svg" viewBox="0 0 32 32">
  <path d="M25 18c1.7 0 3-1.3 3-3s-1.3-3-3-3-3 1.3-3 3 1.3 3 3 
  		   3zm-1-4h2v2h-2v-2zm1 12c1.7 0 3-1.3 3-3s-1.3-3-3-3-3 
		   1.3-3 3 1.3 3 3 3zm-1-4h2v2h-2v-2zm-7 4c1.7 0 3-1.3 
		   3-3s-1.3-3-3-3-3 1.3-3 3 1.3 3 3 3zm-1-4h2v2h-2v-2zM28 
		   0H6C3.8 0 2 1.8 2 4v24c0 2.2 1.8 4 4 4h22c2.2 0 4-1.8 
		   4-4V4c0-2.2-1.8-4-4-4zm2 28c0 1.1-.9 2-2 2H6c-1.1 
		   0-2-.9-2-2V8h26v20zm0-22H4V4c0-1.1.9-2 2-2h22c1.1 0 
		   2 .9 2 2v2zM17 18c1.7 0 3-1.3 3-3s-1.3-3-3-3-3 1.3-3 3 
		   1.3 3 3 3zm-1-4h2v2h-2v-2zM9 26c1.7 0 3-1.3 3-3s-1.3-3-3-3-3 
		   1.3-3 3 1.3 3 3 3zm-1-4h2v2H8v-2zm1-4c1.7 0 3-1.3 
		   3-3s-1.3-3-3-3-3 1.3-3 3 1.3 3 3 3zm-1-4h2v2H8v-2z" 
		   fill="#fff"/>
</svg>

<?xml version="1.0" encoding="utf-8"?>
<!-- Generator: Adobe Illustrator 19.1.0, SVG Export Plug-In . SVG Version: 6.00 Build 0)  -->
<svg version="1.1" id="Line_2" xmlns="http://www.w3.org/2000/svg" 
	xmlns:xlink="http://www.w3.org/1999/xlink" x="0px" y="0px"
	viewBox="0 0 32 32" style="enable-background:new 0 0 32 32;" xml:space="preserve">
	<style type="text/css">
	.st0{fill:#FFFFFF;}
	</style>
	<g id="_x31_0_20_">
		<g>
			<path class="st0" d="M25,18c1.7,0,3-1.3,3-3c0-1.7-1.3-3-3-3c-1.7,0-3,1.3-3,3C22,16.7,23.3,18,25,18z M24,14h2v2h-2V14z M25,26
				c1.7,0,3-1.3,3-3c0-1.7-1.3-3-3-3c-1.7,0-3,1.3-3,3C22,24.7,23.3,26,25,26z M24,22h2v2h-2V22z M17,26c1.7,0,3-1.3,3-3
				c0-1.7-1.3-3-3-3c-1.7,0-3,1.3-3,3C14,24.7,15.3,26,17,26z M16,22h2v2h-2V22z M28,0H6C3.8,0,2,1.8,2,4v24c0,2.2,1.8,4,4,4h22
				c2.2,0,4-1.8,4-4V4C32,1.8,30.2,0,28,0z M30,28c0,1.1-0.9,2-2,2H6c-1.1,0-2-0.9-2-2V8h26V28z M30,6H4V4c0-1.1,0.9-2,2-2h22
				c1.1,0,2,0.9,2,2V6z M17,18c1.7,0,3-1.3,3-3c0-1.7-1.3-3-3-3c-1.7,0-3,1.3-3,3C14,16.7,15.3,18,17,18z M16,14h2v2h-2V14z M9,26
				c1.7,0,3-1.3,3-3c0-1.7-1.3-3-3-3c-1.7,0-3,1.3-3,3C6,24.7,7.3,26,9,26z M8,22h2v2H8V22z M9,18c1.7,0,3-1.3,3-3c0-1.7-1.3-3-3-3
				c-1.7,0-3,1.3-3,3C6,16.7,7.3,18,9,18z M8,14h2v2H8V14z"/>
		</g>
	</g>
</svg>
